X:1
T: The Derby Hornpipe
C:
R:Reel
Q: 232
K:G
M:4/4
L:1/8
|:dc|BA BG cB cA|Bg fg ed cB|cd ef gb gd|cB AG FA DG|
BA BG cB cA|Bg fg ed cB|cd ef gd BG|BA GF G2:|
|:Bc|de dB gf ed|ef ge ag fe|dg ba gf ed|ed cB A2 Bc|
de dB gf ed|ed ef gf ga|bg ec BA GF|G2 G2 G2:|
